X: 709
T:Mrs Charles Stewart - Pettyvaich
S:Kate Dunlay
Z:https://nigelgatherer.com/
L:1/8
M:4/4
K:F
A/B/ | cFdF cFAF | EGGA B2Bd | cFdF cFAF | ECDE F2 F :|
e | fcAf cfAf | cfAf g2 ga | fcAf cfcA | BGEG F2 Fe |
fcAf cfAf | defa g2 gf | a/g/f g/f/e fca>g | fdcA F2 F ||

